!!!COM: radiohead
!!!OTL: airbag
!!!RNB: hooktheoryid: pyvgPKaKmYq
**kern	**text
*clefG2	*
*k[f#c#g#]	*
*M4/4	*
=1	=1
2r	.
4ee	A
4dd#	.
=2	=2
4dd#	B7/A
8dd#	.
4.dd#	.
8ee	.
[8ee	.
=3	=3
2.ee]	.
[4dd	.
=4	=4
2.dd]	F#m
[4cc#	.
=5	=5
4cc#]	.
4r	.
4cc#	.
[4dd	.
=6	=6
4dd]	Esus4
8cc#	.
4.b	.
8a	.
[8dd	.
=7	=7
2.dd]	.
8cc#	.
[8b	.
=8	=8
1b	E
=9	=9
4b]	.
2a	.
4a	.
=10	=10
1a	A
=11	=11
1r	.
*-	*-